X: 41639
T: Up The Southern Shore
R: jig
M: 6/8
K: Dmajor
f afe|:d2B Bcd|~A3 AFA|~B3 BAB|g3 f2e|
d2B Bcd|~A3 AFA|Bcd efe|1 d2 f afe:|2 d3 d2A|
|:d2e f2g|a2f a2f|d2e f2g|a3 afa|
b2a a2f|g3 f2e|d2B BAB|g3 f2e:|

